X: 7
T:Bobbing Joe
M:6/8
L:1/8
Q:110
R:Jig
K:AAeol
A2e e2d|e>fg B>AG|A2B c>dB|Ae2 A3||
Bd2 G3|Bd2 G2G|A2B c>BA|c>de A3||

